dropdown-arrow.svg

<svg xmlns="http://www.w3.org/2000/svg" height="48" width="48"><path stroke="#3C3732" fill="#FFF" d="M22.95 28.95 16.6 22.6q-.7-.7-.325-1.625.375-.925 1.375-.925h12.7q1 0 1.375.925T31.4 22.6l-6.35 6.35q-.25.25-.5.35-.25.1-.55.1-.3 0-.55-.1-.25-.1-.5-.35Z"/></svg>

<svg xmlns="http://www.w3.org/2000/svg" height="48" width="48"><path stroke=rgb(60, 55, 50) fill=rgb(255, 255, 255) d="M22.95 28.95 16.6 22.6Q15.9 21.9 16.275 20.975Q16.65 20.05 17.65 20.05H30.35Q31.35 20.05 31.725 20.975Q32.1 21.9 31.4 22.6L25.05 28.95Q24.8 29.2 24.55 29.3Q24.3 29.4 24 29.4Q23.7 29.4 23.45 29.3Q23.2 29.2 22.95 28.95Z"/></svg>
